X:2286
T:Gånglåt efter Lejsme Per
S:Efter Göran Håkonsson
Z:[[http://www.bluerose.karenlmyers.org/IncipitsGanglat2.html|Karen Myers (#2286)]]
M:4/4
L:1/8
R:Gånglåt
K:Dm
A2 |: Sd3 A d2 a2 | [A4f4][A2f2]ed | e3 d ^c>A ce | g4 g2 a2 |
a2 gf e2 d2 | f2 ed ^c>A ce | e3 d [d2e2][^c2e2] | [A6e6][A2e2] | d3 A d2 a2 |
[A4f4][A2f2]ed | e3 d ^c>A ce | g4 g2 a2 | a2 gf e2 d2 |
f2 ed ^c>A ce | e3 d "^To Coda" d2 d2  |1 d6 A2 :|2 d6 e2 ||
|: [A3f3][Af][A2f2][A2f2] | [A6a6][Aa][A_b] | [A3a3][Ag][A2g2][A2g2] | g4 e2 c2 |
[A4f4][A3f3][Af] | [A2f2]a2 a2 gf | e2 d2 d2 ^cd |
[1 ded^c A4- | A6 e2 :|2 e2 d^c A4- |"^D.S. al Coda" A6 A2 |||
"^CODA"d6 z2 |]
